X:2576
L:1/8
M:4/4
K:D
 A | FDDD FDFA | BGAF GEEA | FDDD FDFA | dABG FDDA | FDDD FDFA | BGAF GEEA | FDDD FDAF | 
 dABG FDD || A | defg abaf | gefd edBc | defg abaf | geag fddc | defg abaf | gefd edBd | 
 AdFA BcdB | AFGE FDD ||

